X: 296
T: San guo diao
L: 1/8
M: 2/4
K: F
A c d f [I:setbarnb 1]| 
c3f | 
d c A/ c/ D | 
F4 | 
D F z G/ G/ | 
A d c A | 
G A/ c/ A G | 
F4 | 
A d c A | 
A c A D | 
G/ G/ F/ G/ c E | 
D C/ D< E D/ | 
C4 |]

@@@ Tune index: 9170
